X:23
T:Sarah's Mandolin 
R:jig
C:Paul S. Cranford
O:Cape Breton Island
S:http://www.cranfordpub.com
D:currently unrecorded
B:currently unpublished in book form
Z:psc
H:                                                        copyrights Cranford Publications, SOCAN
L:1/8
Q:300
M:6/8
K:Bdor
c|d2 B BAB|FBd f2 d|cAe cAe|dAf ecA|
d2 B BAB|FBd fed|cAe dcA|B3 B2:|
|:f|bff a2 f|bae f2d|cAe cAe|dfd ecA|
[1bff a2 f|bae fed|cAe dcA|B3 B2 :|
[2d2 B BAB|FBd f2 d|cAe dcA|B3 B2|]
